X:1
T: Balance the straw - Fieldtown
R: Rag Morris
K: G
L: 1/8
M: 6/8
Z: Michael Greene & Mackin
C: Trad
r: 24
[P:A] D | G2 B BAB | ded cAc |c2 A ABc | [1 B2 G G2 D :| [2 B2 G GBc ||
P:B
|: d2 d d2 G | c2 B B2 A | e2 d GAB | c2 B AFD|
G2 B BAB | ded cAc | c2 A ABc | [1 B2 G GBc  :| [2 B2 G G2 D ||
W: Morris forumula: A.(AB)4, A dance off. 
